X: 105
T: Cantantibus organis – Andantino
C: Franciszek Walczyński
%%abc-version 2.0
%%abcx-abcm2ps-target-version 5.9.1 (29 Sep 2008)
%%abc-creator hum2abc beta
%%abcx-conversion-date 2021/10/04 07:38:39
%%abc-edited-by Andrzej Borzym
%%abc-edited-by Andrzej Gręziak
%%abcx-initial-encoding-date 2021-07-27
%%humdrum-veritas 810995964
%%humdrum-veritas-data 4151642464
%%linebreak <none>
%%barnumbers 0
L: 1/8
M: 2/4
N: Derived from pl-kozmzk--mzk-m-346--006_walczynski-franciszek--cantantibus-organis-andantino.krn
Q: "Andantino."
%%staves {1 2}
V: 1 clef=treble
V: 2 clef=bass
K: C
[V:1] AB/c/ BA & z4 | 
[V:2] z4 & z4 | 
[V:1] ^G4 & z FED | 
[V:2] z4 & z4 | 
[V:1] ABcd & E3A | 
[V:2] C^G,A,F, & z4 | 
[V:1] e4 & ^G4 | 
[V:2] E,4 & z4 | 
[V:1] z4 & z4 | 
[V:2] z4 & E,,^G,,/B,,/ E,D, | 
[V:1] A2_B!fermata!d & E2F2 | 
[V:2] z4 & C,C D!fermata!_B, | 
[V:1] c=B/A/ FE & z4 | 
[V:2] z4 & z4 | 
[V:1] A4- & C4- | 
[V:2] E,^D,/E,/ G,^F, & A,,4- | 
[V:1] A3=G & C4- | 
[V:2] E,2_E,2 & A,,4- | 
[V:1] !fermata!^F4 & C4 ||  
[V:2] D,4 & !fermata!A,,4 ||  
[V:1]  [K:G] [M:2/4]dBGA & z4 | 
[V:2]  [K:G] [M:2/4]z4 & z4 | 
[V:1] D4 | 
[V:2] z [CA,][B,G,][A,F,] & z4 | 
[V:1] DE/F/ GA/B/ | 
[V:2] [B,G,] zz2 & z4 | 
[V:1] A3G & z ^CDE | 
[V:2] zA,3- & z A,,B,,^C, | 
[V:1] FE/F/ Gd- & D4 | 
[V:2] A,2G,2 & D,=C,B,,_B,, | 
[V:1] dcB2 & F2G2- | 
[V:2] D4 & A,,2G,,=F,, | 
[V:1] c2BA & G2F2 | 
[V:2] C2DC & E,,_E,,D,,D, | 
[V:1] !fermata!G4 & G4 | 
[V:2] B,4 & !fermata!G,,4 | 
[V:1] BGEF & z4 | 
[V:2] z4 & z4 | 
[V:1] B,4- | 
[V:2] z [A,F,][G,E,][F,^D,] & z4 | 
[V:1] B,^C/^D/ EF/G/ | 
[V:2] [G,E,] zz2 & z4 | 
[V:1] F4- | 
[V:2] z [^A,F,][B,^G,][^CA,] & z4 | 
[V:1] F^G/^A/ B^c/^d/ | 
[V:2] [DB,] zz2 & z4 | 
[V:1] e2=cA & z4 | 
[V:2] z4 & z4 | 
[V:1] B2A2 & G3F | 
[V:2] z!accent!D2C & z2D,D,, | 
[V:1] G2F2 & E2^D2 | 
[V:2] B,4 & E,,F,,/G,,/A,,2 | 
[V:1] E4 & E2A,2- | 
[V:2] G,4- & B,,2^C,2 | 
[V:1] !fermata!D4 & A,4 | 
[V:2] G,F,/E,/!fermata!F,2 & !fermata!D,4 | 
[V:1] dBGA & z4 | 
[V:2] z4 & z4 | 
[V:1] D4- | 
[V:2] z [CA,][B,G,][A,F,] & z4 | 
[V:1] DE/F/ GA/B/ | 
[V:2] [B,G,] zz2 & z4 | 
[V:1] A2!fermata!G2 & z D/C/B,2 | 
[V:2] z F,G,2 & x D,!fermata!E,2 | 
[V:1] z4 & z4 | 
[V:2] z4 & D,,E,,/F,,/ G,,A,,/B,,/ | 
[V:1] z AG2- & x FG2 | 
[V:2] z CB,2 & A,,.D,,G,,2- | 
[V:1] G4- & DC/B,/ DC | 
[V:2] =F,2E,2 & G,,4- | 
[V:1] !fermata!G4 & G,A,!fermata!B,2 |]  
[V:2] _E,2!fermata!D,2 & !fermata!G,,4 |]  


